src/assets/img/product/prompt/product-characteristic4.svg

<?xml version="1.0" encoding="UTF-8"?>
<svg width="99px" height="73px" viewBox="0 0 99 73" version="1.1" xmlns="http://www.w3.org/2000/svg" xmlns:xlink="http://www.w3.org/1999/xlink">
    <!-- Generator: Sketch 55.2 (78181) - https://sketchapp.com -->
    <title>4</title>
    <desc>Created with Sketch.</desc>
    <defs>
        <path d="M0,10.7811212 C8.158711,7.02532363 16.8247608,4.15393233 25.9981494,2.16694732 C39.7582323,-0.813530186 45.5,8.5880495 48,6.72157679 C50.5,4.85510408 56.0325405,2.07249855 62.577719,1 C74.3005374,-0.920911072 86.2866751,2.672796 98.5361321,11.7811212 L98.5361321,71 C90.897515,66.605534 81.1179112,63.5423312 69.1973206,61.8103915 C65.4096026,61.2600749 62.490556,61.288384 60.1917972,61.6748715 C51.6386807,63.1128967 51.672838,69.5095483 47.5,69.5095483 C41.7736209,69.5095483 43.7550399,58.6884149 25.9981494,64.4083011 C21.9547726,65.7107619 13.2887228,68.5015489 0,72.7806621 L0,10.7811212 Z" id="path-1"></path>
    </defs>
    <g id="页面1" stroke="none" stroke-width="1" fill="none" fill-rule="evenodd">
        <g id="p002prompt" transform="translate(-280.000000, -1319.000000)">
            <g id="编组-13" transform="translate(280.000000, 1319.000000)">
                <g id="4">
                    <g id="编组-11">
                        <mask id="mask-2" fill="white">
                            <use xlink:href="#path-1"></use>
                        </mask>
                        <path stroke="#2F54EB" stroke-width="2" d="M1,11.4235539 L1,71.4080836 C13.5517395,67.3662725 21.782265,64.7157293 25.691542,63.456465 C35.0688709,60.4358205 39.6675105,61.4180444 43.3621318,65.448946 C43.6254194,65.7361977 44.4703176,66.7054872 44.6314145,66.8827819 C45.7090808,68.0688043 46.4325768,68.5095483 47.5,68.5095483 C48.4018608,68.5095483 49.0626696,68.1309356 49.9766528,67.1548867 C50.1622258,66.956712 51.5939059,65.2923914 52.1159837,64.7538288 C54.1983552,62.6057056 56.555882,61.2721384 60.0259955,60.6887124 C62.5886086,60.2578634 65.656492,60.285446 69.3411007,60.8207819 C80.6167359,62.4590161 90.0153781,65.2830543 97.5361321,69.3021961 L97.5361321,12.2856484 C85.632595,3.54936726 74.0463225,0.134081049 62.7394233,1.98683925 C57.2071197,2.89336726 51.6535008,5.24186941 48.5982493,7.52288682 C47.652357,8.22907968 46.5998205,8.07709098 45.1492459,7.35106207 C44.6235188,7.08792973 42.0366937,5.57844942 41.2376641,5.15911967 C36.6208707,2.73623207 32.0811809,1.87253303 26.2098435,3.14428331 C17.3246663,5.0688408 8.92178707,7.82863617 0.999999964,11.4235548 Z"></path>
                        <rect id="矩形" fill="#2F54EB" mask="url(#mask-2)" x="46" y="2" width="4" height="68"></rect>
                        <polygon id="矩形" fill="#2C55FF" mask="url(#mask-2)" points="71 -13 113 -13 113 85 71 85 71 17.5668773"></polygon>
                    </g>
                </g>
            </g>
        </g>
    </g>
</svg>

<svg width="99" height="73" viewBox="0 0 99 73" xmlns="http://www.w3.org/2000/svg" xmlns:xlink="http://www.w3.org/1999/xlink"><defs><path d="M0 10.781c8.159-3.756 16.825-6.627 25.998-8.614C39.758-.813 45.5 8.588 48 6.722 50.5 4.855 56.033 2.072 62.578 1 74.3-.92 86.287 2.673 98.536 11.781V71c-7.638-4.394-17.418-7.458-29.339-9.19-3.787-.55-6.706-.522-9.005-.135-8.553 1.438-8.52 7.835-12.692 7.835-5.726 0-3.745-10.822-21.502-5.102L0 72.781v-62z" id="a"/></defs><g fill="none" fill-rule="evenodd"><mask id="b" fill="#fff"><use xlink:href="#a"/></mask><path stroke="#2F54EB" stroke-width="2" d="M1 11.424v59.984l24.692-7.952c9.377-3.02 13.976-2.038 17.67 1.993.263.287 1.108 1.256 1.27 1.434 1.077 1.186 1.8 1.627 2.868 1.627.902 0 1.563-.38 2.477-1.355.185-.198 1.617-1.863 2.139-2.401 2.082-2.148 4.44-3.482 7.91-4.065 2.563-.431 5.63-.404 9.315.132 11.276 1.638 20.674 4.462 28.195 8.481V12.286C85.633 3.549 74.046.134 62.74 1.986c-5.532.907-11.085 3.256-14.14 5.537-.947.706-2 .554-3.45-.172-.525-.263-3.112-1.773-3.911-2.192C36.62 2.736 32.08 1.873 26.21 3.144 17.325 5.07 8.922 7.83 1 11.424z"/><path fill="#2F54EB" mask="url(#b)" d="M46 2h4v68h-4z"/><path fill="#2C55FF" mask="url(#b)" d="M71-13h42v98H71V17.567z"/></g></svg>
